X: 1
T: The Blakes Of Mayo
R: reel
M: 4/4
L: 1/8
K: Gmaj
|:GABd edBd|dBde gedB|A2GE AEE2|AGAB cABA|
GABd dBAG|gbag eBdB|AGAB GEED|dBBA G4:|
|:gbag eBdB|AEE2 AGAB|ceae gbag|(3ege dB A2Bd|
egae gaeB|dBAE (3GAG EG|DEGA (3BdB dB|BAAE G4:|
|:degd eaa2|dbae gedB|A2GE AEE2|DEGA BdeB|
dega a2ba|d'bae g2ed|edBA GEE2|dBBA G4:|

